X: 66
T: Briul Drept
O: Romania
M: 2/4
L: 1/8
Q: 1/4=270
K: EDor
%%MIDI gchord fz
%%MIDI program 110
%%MIDI bassprog 117
|:"a"A3B |"d"c3B |"a"c3A |"e"F2E2 |\
  "a"A3B |"d"c3B |"a"c3A |"e"F2E2 :|
|:"a"z2A2|"d"A2A2|"a"A2A2|"e"A2A2 |A2z2 :|
|:"a"ABcd|"d"efga|"a"gfed|"e"a2a2 |\
  "a"ABcd|"d"efga|"a"gfed|"e"A2A2 :|



